!!!!SEGMENT: pl-sa--481-a-viii-121--029_anonim--anglaise.krn
!!!cenid: 18xx:400
!!!COM: Anonim
!!!COM-rismID: pe30004985
!!!CDT:
!!!CNT:
!!!OTL: Anglaise
!!!PDT:
!!!AGN: Secular
!!!SMS-siglum: PL-SA
!!!SMS-shelfmark: 481/A VIII 121
!!!SMS-shelfwork: 029 W
!!!SMS-variant:
!!!SMS-altvar:
!!!NIFC-rismSourceID: 1001070696
!!!NIFC-islandoraID:
!!!URL-pdf-islandora:
!!!URL-scan: https://bc.bdsandomierz.pl/dlibra/publication/1212/edition/1171/content @EN{Scan in the Sandomierz Diocese Digital Library} @PL{Skany w portalu Cyfrowa Biblioteka Diecezjalna w Sandomierzu}
!!!ONB-nifc: Str. 22, s. 1
!!!AIN: 1 piano
!!!key:
**kern	**kern
*part1	*part1
*staff2	*staff1
*Ipiano	*Iempty
*I"Piano	*
*I'P-no	*
*clefF4	*clefG2
*k[]	*k[]
*C:	*C:
*M2/4	*M2/4
*>[A,A,B,B]	*>[A,A,B,B]
=1	=1
*>A	*>A
!LO:TX:a:t=P:problem=omyłkowo wpisany klucz F3	!LO:TX:a:i:t=Anglaise
8eL 8c\	8ggL 8eet\
8G\J	8eeJ 8cc\
*rep	*
8eL 8c\	8ggL 8eet\
8G\J	8eeJ 8cc\
*Xrep	*
=2	=2
8fL 8d\	16gg\LL
.	16aa\
8G\J	16gg\
.	16ff\JJ
*rep	*
8fL 8d\	8ee\L
8G\J	8ff\J
*Xrep	*
=3	=3
*rep	*
8fL 8d\	8ffL 8ddT\
8G\J	8ddJ 8b\
*Xrep	*
*rep	*
8fL 8d\	8ffL 8ddT\
8G\J	8ddJ 8b\
*Xrep	*
=4	=4
*rep	*
8fL 8d\	8gg\L
8G\J	8b\J
*Xrep	*
8eL 8c\	4cc\
8G\J	.
=5:|!|:	=5:|!|:
*>B	*>B
8eL 8c\	8ccT\L
.	16qqbb/
8G\J	8ccc\
.	16qqbb/
*rep	*
8eL 8c\	8ccc\
.	16qqbb/
8G\J	8ccc\J
*Xrep	*
=6	=6
8fL 8d\	8ffT\L
.	16qqgg#X/
8G\J	8aa\
.	16qqgg#/
*rep	*
8fL 8d\	8aa\
.	16qqgg#/
8G\J	8aa\J
*Xrep	*
=7	=7
8eL 8c\	8ccT\L
.	16qqff#X/
8G\J	8gg\
.	16qqff#/
*rep	*
8eL 8c\	8gg\
.	16qqff#/
8G\J	8gg\J
*Xrep	*
=8	=8
8fL 8d\	8ggT\L
8G\J	8b\J
8eL 8c\	4ccT\
8G\J	.
=:|!	=:|!
*-	*-
!!!system-decoration: s1,s2
!!!ENC: Marta Lawrence
!!!END: 2020-11-22
!!!ENC: Tomasz Grochalski
!!!END: 2020-06-14
!!!YEC: Copyright 2022 Narodowy Instytut Fryderyka Chopina (https://polishscores.org)
!!!YEM: Licence CC BY 4.0 (https://creativecommons.org/licenses/by/4.0)
